assets/icons/24px/stroke/location-24px.svg

<svg width="24" height="24" viewBox="0 0 24 24" fill="none" xmlns="http://www.w3.org/2000/svg">
<path fill-rule="evenodd" clip-rule="evenodd" d="M12 4C9.25426 4 7 6.22774 7 8.95304C7 10.1493 7.27066 11.33 7.79169 12.4068L9.8975 16.7589C10.422 17.8427 10.7828 18.5857 11.0989 19.1001C11.4248 19.6304 11.5912 19.722 11.6365 19.7397C11.8702 19.8309 12.1298 19.8309 12.3635 19.7397C12.4088 19.722 12.5752 19.6304 12.9011 19.1001C13.2172 18.5857 13.578 17.8427 14.1025 16.7589L16.2083 12.4068C16.7293 11.33 17 10.1493 17 8.95304C17 6.22774 14.7457 4 12 4ZM5 8.95304C5 5.10279 8.17019 2 12 2C15.8298 2 19 5.10279 19 8.95304C19 10.451 18.6611 11.9296 18.0086 13.278L15.8783 17.6807C15.3844 18.7014 14.9803 19.5366 14.605 20.1473C14.2333 20.7522 13.7767 21.3351 13.0906 21.6029C12.3893 21.8765 11.6107 21.8765 10.9094 21.6029C10.2233 21.3351 9.76672 20.7522 9.39497 20.1473C9.01969 19.5366 8.61561 18.7014 8.12175 17.6807L5.99138 13.278C5.33892 11.9296 5 10.451 5 8.95304Z" fill="white"/>
<path d="M14 9C14 10.1046 13.1046 11 12 11C10.8954 11 10 10.1046 10 9C10 7.89543 10.8954 7 12 7C13.1046 7 14 7.89543 14 9Z" fill="white"/>
</svg>

<svg width="24" height="24" fill="none" xmlns="http://www.w3.org/2000/svg"><path fill-rule="evenodd" clip-rule="evenodd" d="M12 4C9.254 4 7 6.228 7 8.953c0 1.196.27 2.377.792 3.454l2.106 4.352c.524 1.084.885 1.827 1.2 2.341.327.53.493.622.538.64a1 1 0 0 0 .728 0c.045-.018.211-.11.537-.64.316-.514.677-1.257 1.201-2.341l2.106-4.352A7.93 7.93 0 0 0 17 8.953C17 6.228 14.746 4 12 4zM5 8.953C5 5.103 8.17 2 12 2s7 3.103 7 6.953a9.93 9.93 0 0 1-.991 4.325l-2.13 4.403c-.495 1.02-.899 1.856-1.274 2.466-.372.605-.828 1.188-1.514 1.456a3 3 0 0 1-2.182 0c-.686-.268-1.142-.85-1.514-1.456-.375-.61-.78-1.446-1.273-2.466l-2.13-4.403A9.93 9.93 0 0 1 5 8.953z" fill="#fff"/><path d="M14 9a2 2 0 1 1-4 0 2 2 0 0 1 4 0z" fill="#fff"/></svg>
